icons/lines/wind-two.svg

<svg xmlns="http://www.w3.org/2000/svg" width="24" height="24" viewBox="0 0 24 24" fill="none" stroke="currentColor" stroke-width="2" stroke-linecap="round" stroke-linejoin="round" >
  <path d="M2 13.1L4.5 11.6C6.04 10.68 7.96 10.68 9.5 11.6C11.04 12.52 12.96 12.52 14.5 11.6C16.04 10.68 17.96 10.68 19.5 11.6L22 13.1" stroke-miterlimit="10"/>
  <path d="M2 3.90002L4.5 5.40002C6.04 6.32002 7.96 6.32002 9.5 5.40002C11.04 4.48002 12.96 4.48002 14.5 5.40002C16.04 6.32002 17.96 6.32002 19.5 5.40002L22 3.90002" stroke-miterlimit="10"/>
  <path d="M2 20.1L4.5 18.6C6.04 17.68 7.96 17.68 9.5 18.6C11.04 19.52 12.96 19.52 14.5 18.6C16.04 17.68 17.96 17.68 19.5 18.6L22 20.1" stroke-miterlimit="10"/>
  </svg>

<svg xmlns="http://www.w3.org/2000/svg" width="24" height="24" viewBox="0 0 24 24" fill="none" stroke="currentColor" stroke-width="2" stroke-linecap="round" stroke-linejoin="round">
  <path d="m2 13.1 2.5-1.5a4.87 4.87 0 0 1 5 0 4.87 4.87 0 0 0 5 0 4.87 4.87 0 0 1 5 0l2.5 1.5" />
  <path d="m2 20.1 2.5-1.5a4.87 4.87 0 0 1 5 0 4.87 4.87 0 0 0 5 0 4.87 4.87 0 0 1 5 0l2.5 1.5" />
  <path d="m2 3.9 2.5 1.5a4.87 4.87 0 0 0 5 0 4.87 4.87 0 0 1 5 0 4.87 4.87 0 0 0 5 0L22 3.9" />
</svg>
